!!!OTL: ICH HAB ZU DIR GESAGT, MEIN KIND ICH LIEBE DICH
!!!ARE: Europa, Mitteleuropa, Deutschland, Sued - Deutschland, Bayern
!!!SCT: Z0271
!!!YEM: Copyright 1995, estate of Helmut Schaffrath.
**kern
*ICvox
*Ivox
*M2/4
*k[f#c#g#]
*A:
{8e
=1
8a
8b
8cc#
8dd
=2
4cc#
8b}
{8cc#
=3
8dd
8cc#
8dd
8ee
=4
4dd
8cc#}
{8e
=5
8a
8b
8cc#
8dd
=6
4cc#
8b}
{8cc#
=7
8dd
8b
8a
8g#
=8
4a
8r}
{8cc#
=9
8ee
8dd
8cc#
8dd
=10
4ee
8dd}
{8cc#
=11
8dd
8ee
8ff#
8dd
=12
4dd
8cc#}
{8e
=13
8a
8b
8cc#
8dd
=14
4cc#
8b}
{8cc#
=15
8dd
8b
8a
8g#
=16
4a
8r}
==
!!!AGN: Lyrisches Lied, Romanze
!!!ONB: ESAC (Essen Associative Code) Database: ZUCCAL
!!!AMT: simple duple
!!!AIN: vox
!!!EED: Helmut Schaffrath
!!!EEV: 1.0
*-
